X:74
T:Polska efter Lasse i Svarven
R:sl\"angpolska
H:Efter L.J. Sundell, V\"astervik
A:Sm{\aa}land, \"Osterg\"otland
B:SvL \"Ogl 306
Z:id:hn-sp-74
M:3/4
L:1/16
K:D
d2dc d2A2 F2D2 | d2dc d2ef e4 | f2ef g2fe f2ed | (ef)ed (cd)cB c2A2 |
d2dc d2A2 F2D2 | d2dc d2ef e4 | f2ef g2fe f2ed | (cd)ec d4 D4 :|
|: (fa)fd (fa)fd (fa)fd | (eg)ec (eg)ec (eg)ec | d2dc B2Bc d2f2 |
efed cdcB c2A2 | (Bd)BG (Bd)BG (Bd)BG | (Ad)AF (Ad)AF (Ad)AF |
G2F2 E2g2 f2ed | (cd)ec d4 D4 :|
<end>
<start>
